dist/img/logo.svg

<svg width="46" height="19" viewBox="0 0 46 19" xmlns="http://www.w3.org/2000/svg">
<path d="M2.78906 15H1.03906V3.72656H8.07812V5.23438H2.78906V8.80469H7.63281V10.2812H2.78906V15ZM11.3516 5.19531V9.25H13.8047C14.4818 9.25 15.0052 9.07292 15.375 8.71875C15.7448 8.36458 15.9297 7.86458 15.9297 7.21875C15.9297 6.58854 15.737 6.09375 15.3516 5.73438C14.9661 5.375 14.4349 5.19531 13.7578 5.19531H11.3516ZM11.3516 10.6641V15H9.60156V3.72656H13.9688C15.125 3.72656 16.0417 4.03906 16.7188 4.66406C17.3958 5.28385 17.7344 6.11979 17.7344 7.17188C17.7344 7.9375 17.5391 8.60938 17.1484 9.1875C16.763 9.76042 16.2292 10.1615 15.5469 10.3906L18.0703 15H16.0547L13.7578 10.6641H11.3516ZM24.3047 3.53906C25.9245 3.53906 27.2083 4.0625 28.1562 5.10938C29.1094 6.15625 29.5859 7.57552 29.5859 9.36719C29.5859 11.1589 29.112 12.5781 28.1641 13.625C27.2161 14.6667 25.9297 15.1875 24.3047 15.1875C22.6797 15.1875 21.3932 14.6667 20.4453 13.625C19.4974 12.5781 19.0234 11.1589 19.0234 9.36719C19.0234 7.57552 19.4974 6.15625 20.4453 5.10938C21.3932 4.0625 22.6797 3.53906 24.3047 3.53906ZM24.3047 5.07812C23.2318 5.07812 22.3802 5.46354 21.75 6.23438C21.125 7.00521 20.8125 8.04948 20.8125 9.36719C20.8125 10.6797 21.125 11.7214 21.75 12.4922C22.3802 13.263 23.2318 13.6484 24.3047 13.6484C25.3724 13.6484 26.2188 13.263 26.8438 12.4922C27.474 11.7214 27.7891 10.6797 27.7891 9.36719C27.7891 8.04948 27.474 7.00521 26.8438 6.23438C26.2188 5.46354 25.3724 5.07812 24.3047 5.07812Z" fill="#262626"/>
<path d="M39.5005 4.4532C40.7729 3.31082 42.7392 3.34874 43.965 4.5767C45.1902 5.8052 45.2325 7.7617 44.0928 9.03786L39.4995 13.6377L34.9072 9.03786C33.7675 7.7617 33.8103 5.80195 35.035 4.5767C36.2619 3.35036 38.2244 3.3092 39.5005 4.4532Z" fill="#83C1FA"/>
</svg>

<svg width="46" height="19" xmlns="http://www.w3.org/2000/svg"><path d="M2.79 15H1.04V3.727h7.038v1.507H2.79v3.57h4.844v1.477H2.789V15zm8.562-9.805V9.25h2.453c.677 0 1.2-.177 1.57-.531.37-.354.555-.854.555-1.5 0-.63-.193-1.125-.578-1.485-.386-.359-.917-.539-1.594-.539h-2.406zm0 5.47V15h-1.75V3.727h4.367c1.156 0 2.073.312 2.75.937.677.62 1.015 1.456 1.015 2.508 0 .766-.195 1.437-.586 2.016a3.043 3.043 0 01-1.601 1.203L18.07 15h-2.015l-2.297-4.336h-2.406zm12.953-7.126c1.62 0 2.903.523 3.851 1.57.953 1.047 1.43 2.467 1.43 4.258 0 1.792-.474 3.211-1.422 4.258-.948 1.042-2.234 1.563-3.86 1.563-1.624 0-2.91-.521-3.859-1.563-.948-1.047-1.422-2.466-1.422-4.258 0-1.791.474-3.21 1.422-4.258.948-1.046 2.235-1.57 3.86-1.57zm0 1.54c-1.073 0-1.925.385-2.555 1.155-.625.771-.938 1.815-.938 3.133 0 1.313.313 2.354.938 3.125.63.771 1.482 1.156 2.555 1.156 1.067 0 1.914-.385 2.539-1.156.63-.77.945-1.812.945-3.125 0-1.318-.315-2.362-.945-3.133-.625-.77-1.472-1.156-2.54-1.156z" fill="#262626"/><path d="M39.5 4.453a3.25 3.25 0 014.593 4.585l-4.594 4.6-4.592-4.6a3.25 3.25 0 014.594-4.585z" fill="#83C1FA"/></svg>
